icons/LaTeX-Light.svg

<svg width="256" height="256" viewBox="0 0 256 256" fill="none" xmlns="http://www.w3.org/2000/svg">
<rect width="256" height="256" rx="60" fill="#F4F2ED"/>
<path d="M67.8948 193.68H65.7476C64.8888 202.533 63.6863 213.294 48.57 213.294H41.6131C37.5764 213.294 37.4046 212.687 37.4046 209.823V163.738C37.4046 160.787 37.4046 159.572 45.4781 159.572H48.3124V156.968C45.2204 157.229 37.4905 157.229 33.9691 157.229C30.6195 157.229 23.9202 157.229 21 156.968V159.572H22.9754C29.5888 159.572 29.7606 160.526 29.7606 163.651V209.215C29.7606 212.34 29.5888 213.294 22.9754 213.294H21V215.985H65.5759L67.8948 193.68V193.68Z" fill="black"/>
<path d="M66.4348 156.881C66.0913 155.84 65.9195 155.493 64.8029 155.493C63.6864 155.493 63.4287 155.84 63.0852 156.881L49.2572 192.291C48.656 193.767 47.6253 196.457 42.3003 196.457V198.627H55.6129V196.457C52.9504 196.457 51.3185 195.242 51.3185 193.506C51.3185 193.072 51.4044 192.899 51.5762 192.291L54.4964 184.827H71.5022L74.9377 193.68C75.1095 194.027 75.2813 194.461 75.2813 194.721C75.2813 196.457 72.0175 196.457 70.3857 196.457V198.627H87.3056V196.457H86.1032C82.0664 196.457 81.637 195.85 81.0358 194.114L66.4348 156.881V156.881ZM62.9993 163.043L70.6433 182.658H55.3553L62.9993 163.043V163.043Z" fill="black"/>
<path d="M135.231 157.489H82.9251L81.3792 176.93H83.4405C84.6429 162.956 85.9312 160.092 98.9003 160.092C100.446 160.092 102.679 160.092 103.538 160.266C105.342 160.613 105.342 161.568 105.342 163.564V209.128C105.342 212.079 105.342 213.294 96.3237 213.294H92.8881V215.985C96.4095 215.724 105.084 215.724 109.035 215.724C112.986 215.724 121.832 215.724 125.354 215.985V213.294H121.918C112.9 213.294 112.9 212.079 112.9 209.128V163.564C112.9 161.828 112.9 160.613 114.446 160.266C115.391 160.092 117.71 160.092 119.342 160.092C132.225 160.092 133.513 162.956 134.716 176.93H136.863C136.863 176.93 135.231 157.489 135.231 157.489Z" fill="black"/>
<path d="M181.267 213.207H179.12C176.972 226.486 174.997 232.822 160.31 232.822H148.973C144.936 232.822 144.764 232.214 144.764 229.35V206.264H152.408C160.74 206.264 161.684 209.042 161.684 216.419H163.832V193.506H161.684C161.684 200.883 160.74 203.574 152.408 203.574H144.764V182.831C144.764 179.967 144.936 179.36 148.973 179.36H159.967C173.107 179.36 175.341 184.133 176.715 196.197H178.862C178.862 196.197 176.457 176.756 176.457 176.756H128.36V179.36H130.335C136.949 179.36 137.12 180.314 137.12 183.439V228.743C137.12 231.867 136.949 232.822 130.335 232.822H128.36V235.512H177.66L181.267 213.207V213.207Z" fill="black"/>
<path d="M207.119 182.571L218.886 165.213C220.69 162.436 223.61 159.659 231.254 159.572V156.968H210.812V159.572C214.248 159.659 216.138 161.568 216.138 163.564C216.138 164.432 215.966 164.606 215.365 165.56L205.573 180.141C205.573 180.141 194.58 163.477 194.58 163.477C194.408 163.217 193.978 162.523 193.978 162.175C193.978 161.134 195.868 159.659 199.475 159.572V156.968C196.555 157.229 190.285 157.229 187.022 157.229C184.359 157.229 179.034 157.142 175.856 156.968V159.572H177.488C182.212 159.572 183.844 160.179 185.476 162.609L201.193 186.65L187.193 207.566C185.991 209.302 183.414 213.294 174.825 213.294V215.985H195.267V213.294C191.316 213.208 189.856 210.864 189.856 209.302C189.856 208.521 190.113 208.174 190.715 207.219L202.825 189.08L216.395 209.736C216.567 210.083 216.825 210.43 216.825 210.691C216.825 211.732 214.935 213.208 211.242 213.294V215.985C214.248 215.724 220.518 215.724 223.696 215.724C227.303 215.724 231.254 215.811 234.861 215.985V213.294H233.229C228.763 213.294 226.959 212.86 225.156 210.17L207.119 182.571V182.571Z" fill="black"/>
<path d="M66.7719 20.0002C68.2818 22.7202 69.8515 25.0409 71.4904 27.0521C70.7411 26.9428 69.9691 26.8785 69.1673 26.8869C67.5836 26.9036 65.8906 27.1665 64.0565 27.744C67.257 30.4241 69.9618 32.38 72.3477 33.8874C68.6619 32.7101 64.6927 32.5424 60.0302 34.7547C63.4359 36.8858 66.2945 38.426 68.7965 39.5765C64.896 38.8576 60.8514 39.1851 56.4371 42.0958C59.3516 43.3945 61.872 44.3696 64.1086 45.1107C60.4373 45.239 56.8035 46.3729 53.247 49.7466C56.332 50.512 58.9752 51.0194 61.3003 51.3573C58.4546 51.9323 55.6631 53.2973 52.9577 56.0242C55.0538 56.4771 56.9406 56.8189 58.6674 57.0774C56.5416 58.1049 54.5288 59.6973 52.6892 62.1366C55.1046 62.3242 57.2416 62.4075 59.163 62.4154C56.8382 63.4911 54.662 65.1907 52.7202 67.9187C56.1701 68.0911 59.0519 68.0743 61.5378 67.9289C58.8059 69.0458 56.288 70.933 54.1347 74.1963C58.4223 74.2589 61.818 74.053 64.6659 73.7007C61.1311 74.6604 57.8591 76.5901 55.167 80.6701C58.6305 80.7206 61.5214 80.5946 64.0052 80.3603C60.9687 82.015 58.3608 84.5249 56.6435 88.8064C59.7696 88.2144 62.3895 87.5806 64.6455 86.917C62.2956 88.6271 60.3204 91.029 58.9976 94.6401C61.0948 94.1765 62.956 93.6911 64.6351 93.2049C63.1278 95.0273 61.9659 97.3083 61.3105 100.298C63.5878 99.4595 65.5576 98.6467 67.3093 97.8511C65.6451 99.7986 64.374 102.264 63.7472 105.554C66.9534 104.272 69.5613 103.047 71.7594 101.878C69.7444 104.032 68.2452 106.803 67.6501 110.665C71.5537 108.941 74.5486 107.345 76.9838 105.843C74.1871 108.187 72.0366 111.303 71.2947 116.116C76.3954 113.865 79.9551 111.822 82.7246 109.932C81.5352 112.337 80.9048 115.154 81.2068 118.666C86.1365 114.884 89.2593 111.823 91.5831 109.126C91.4263 110.868 91.55 112.762 92.0684 114.857C95.6074 108.776 99.1244 107.001 102.764 104.972C96.9668 107.891 97.8262 110.088 97.8262 112.637C102.249 107.98 108.416 103.041 110.303 99.9474C107.78 103.735 106.754 107.322 106.09 110.489C93.1853 117.314 85.328 119.097 76.5191 121.825C79.9359 123.079 83.5976 124.306 82.0843 126.048L78.0472 130.075C80.6276 129.273 83.2587 128.128 85.5432 129.693C85.319 131.81 82.6437 132.878 80.3599 134.112C84.3805 132.663 85.25 132.998 86.3071 133.338C86.8353 135.874 85.0025 137.238 83.8085 138.913C93.9358 131.213 107.15 125.13 116.456 122.589C129.546 118.181 146.424 113.599 151.014 102.425L155.619 83.9945C161 78.1704 165.95 72.1307 168.298 64.7903C183.283 61.8913 195.399 62.9379 208.039 63.2622C206.887 63.0702 169.445 56.7264 169.445 56.7264C158.502 41.7548 142.191 51.9313 136.817 66.7209C135.461 70.4538 127.723 70.455 125.481 66.7107C116.614 47.6211 89.6869 27.4384 66.7726 20.0001V20L66.7719 20.0002Z" fill="#008080"/>
<path d="M155.177 59.0692L155.079 59.2267C154.691 59.9501 154.034 60.4439 153.11 60.7426C152.187 61.0412 151.004 61.1369 149.626 61.0772L148.76 61.0378L149.39 61.6482C149.709 61.9558 149.799 62.2013 149.803 62.4159C149.808 62.6305 149.715 62.8623 149.508 63.1246C149.093 63.6494 148.269 64.2191 147.5 64.798L147.244 64.9751L147.421 65.2311C148.062 66.2151 148.356 66.9726 148.425 67.554C148.494 68.1355 148.359 68.5526 148.09 68.9123C147.553 69.6321 146.375 70.1198 145.314 70.7235L145.118 70.8219L145.157 71.0582C145.248 71.6116 145.099 72.0639 144.704 72.5149C144.309 72.9658 143.645 73.3959 142.755 73.7749L142.519 73.8733L142.558 74.1293C142.736 75.3144 143.092 76.3457 143.838 77.0034C144.52 77.6052 145.553 77.7638 146.87 77.4955C147.099 78.7589 147.428 79.9078 148.189 80.6651C148.959 81.4326 150.18 81.6596 151.811 81.236C152.178 82.1208 152.715 82.7513 153.327 83.1652C153.999 83.6197 154.878 83.803 155.6 84.0275L156.028 83.567C155.311 83.3443 154.252 83 153.681 82.614C153.11 82.2281 152.646 81.6986 152.323 80.7833L152.224 80.4683L151.909 80.5667C150.232 81.0822 149.302 80.8501 148.661 80.2123C148.021 79.5746 147.661 78.4217 147.441 77.0822L147.382 76.7278L147.027 76.8262C145.645 77.187 144.828 77.0025 144.271 76.5112C143.751 76.0524 143.443 75.2389 143.267 74.2276C144.068 73.8573 144.755 73.4522 145.196 72.9481C145.628 72.4555 145.814 71.8475 145.787 71.2157C146.764 70.6781 147.943 70.2162 148.622 69.3061C148.977 68.8303 149.161 68.2049 149.075 67.4753C148.996 66.8115 148.671 66.0446 148.11 65.1326C148.799 64.6254 149.546 64.117 150.02 63.5183C150.283 63.1855 150.481 62.8171 150.472 62.3963C150.468 62.1642 150.245 61.9527 150.118 61.7269C151.316 61.7426 152.407 61.6637 153.307 61.3725C154.256 61.0658 155.001 60.5068 155.492 59.7386C156.91 59.7457 158.378 60.0575 159.863 60.2504C161.388 60.4487 162.94 60.5019 164.41 59.8567L164.135 59.2465C162.834 59.8173 161.445 59.7936 159.961 59.6008C158.477 59.408 156.931 59.058 155.374 59.0693H155.177L155.177 59.0692Z" fill="white"/>
<path d="M160.686 58.8242C160.686 60.3691 159.434 61.6215 157.889 61.6215C156.344 61.6215 155.092 60.3691 155.092 58.8242C155.092 57.2794 156.344 56.0269 157.889 56.0269C159.434 56.0269 160.686 57.2793 160.686 58.8242Z" fill="white" stroke="white" stroke-width="0.660673"/>
<path d="M169.041 56.2C166.529 59.467 165.898 58.6232 164.369 59.1709L164.113 59.2693L164.153 59.5449C164.741 62.8263 166.686 63.8689 168.204 65.0616L168.288 64.7962L168.692 64.7193C167.171 63.5236 165.506 62.5109 164.901 59.7221C166.014 59.4587 167.077 59.7955 169.448 56.7101L169.041 56.2001V56.2Z" fill="white"/>
<path d="M72.3442 33.8794C77.0896 36.8218 84.8996 39.856 89.9155 43.0258C92.6748 44.7827 95.1532 46.5334 97.0813 48.0457C99.0094 49.5582 100.435 51.1207 100.96 51.6287C101.484 52.1367 101.84 51.8966 101.491 51.2349C101.142 50.5733 99.4247 49.0436 97.4751 47.5142C95.5255 45.9849 93.0455 44.2419 90.2698 42.4745C84.7184 38.9398 78.2029 35.7793 72.3445 33.879L72.3442 33.8794Z" fill="white"/>
<path d="M71.4905 27.0505C73.4798 27.5099 76.4158 29.2065 79.6806 31.0217C82.9455 32.8369 86.5038 35.0707 89.7597 37.2426C93.0158 39.4145 95.5263 41.3154 97.5332 42.8467C99.439 44.4776 100.38 45.5337 100.745 45.5305C100.795 45.5405 100.844 45.5413 100.922 45.5305C101 45.5197 101.131 45.4596 101.197 45.3336C101.264 45.2078 101.238 45.102 101.217 45.0384C101.196 44.9747 101.185 44.941 101.158 44.9005C101.05 44.7388 100.886 44.5874 100.646 44.369C100.167 43.9323 99.3739 43.2901 98.3626 42.5185C96.3399 40.9752 93.4007 38.8705 90.1338 36.6913C86.8668 34.5121 83.2834 32.2591 79.9955 30.4311C78.8267 29.998 73.095 26.9668 71.4901 27.0504H71.49L71.4905 27.0505Z" fill="white"/>
<path d="M68.7717 39.5781C74.8623 42.0641 83.5268 44.9843 89.3101 48.6194C92.4175 50.5927 95.124 52.5583 97.1452 54.171C98.1558 54.9773 98.9999 55.7021 99.6257 56.2774C100.252 56.8528 100.604 57.3751 100.807 57.5177C101.23 57.8161 101.555 57.6178 101.358 57.1436C101.21 56.7855 100.72 56.3748 100.078 55.7852C99.4372 55.1957 98.5789 54.4732 97.5586 53.6591C95.518 52.031 92.7937 50.0355 89.6644 48.0484C83.406 44.0743 75.9242 40.5803 68.772 39.5777L68.7717 39.5781Z" fill="white"/>
<path d="M64.0847 45.103C68.8314 45.1061 78.6366 49.4509 82.7696 51.6284C89.4708 55.2022 95.5645 59.7963 98.9323 63.0068C99.3057 63.3629 99.8513 63.0487 99.4245 62.5541C96.2963 58.9293 89.8355 54.6575 83.0847 51.0571C76.3339 47.4567 69.3437 45.0973 64.0845 45.1026L64.0847 45.103Z" fill="white"/>
<path d="M61.342 51.355C68.4781 52.3992 77.0321 55.2796 83.2644 58.4007C86.7423 60.1666 89.8436 62.058 92.2219 63.7357C94.5999 65.4134 96.3558 67.3023 96.7891 67.791C97.2224 68.2798 97.7385 68.3002 97.3403 67.4367C96.9421 66.5732 95.0053 64.8843 92.5959 63.1845C90.1866 61.4846 87.0651 59.5897 83.5601 57.81C76.5498 54.2506 68.5664 51.4504 61.3422 51.3549L61.342 51.355Z" fill="white"/>
<path d="M63.6973 56.6664C61.9246 56.5118 60.3289 56.8753 58.7031 57.0785C65.0438 56.4843 73.9103 59.3961 79.8208 62.1196C86.7832 65.3836 92.5643 69.8648 95.3339 72.7109C95.7674 73.1564 96.0738 72.5887 95.8457 72.2974C93.267 69.0052 87.1261 64.8048 80.0964 61.5094C74.8244 59.0378 69.0159 57.1307 63.6973 56.6666V56.6664Z" fill="white"/>
<path d="M59.1921 62.381C65.4318 62.8435 73.7859 64.3376 79.6379 67.0239C85.5234 69.7767 89.9897 73.346 92.2368 75.3712C92.5826 75.6828 93.1941 75.4621 92.7093 74.8987C90.6585 72.5159 85.8899 69.2199 79.9326 66.4337C73.9756 63.6474 66.7394 61.8629 59.1919 62.3813L59.1921 62.381Z" fill="white"/>
<path d="M64.7959 67.5738C63.4794 67.5293 62.8619 67.7756 61.5918 67.9128C65.8268 68.0994 72.5569 69.2257 76.2733 70.4874C81.0962 72.1606 85.0617 74.6811 87.3175 76.6493C87.753 77.0293 88.0777 76.5195 87.79 76.1965C85.6774 73.8258 81.3838 71.5554 76.4897 69.8574C72.8194 68.584 68.7454 67.7074 64.7959 67.5738H64.7959Z" fill="white"/>
<path d="M64.6142 73.7152C73.6673 74.3261 79.1416 75.9212 83.3378 79.6802C83.6522 79.9618 84.1486 79.5741 83.8103 79.2077C79.5041 74.5422 71.0257 73.2422 64.614 73.7153L64.6142 73.7152Z" fill="white"/>
<path d="M71.5854 79.1531C68.841 78.9323 66.5446 79.5321 64.0435 80.3649C71.3629 79.1983 74.4063 79.7577 79.9517 82.3619C80.5839 82.6588 80.5468 81.9594 80.2667 81.791C77.3208 80.0203 74.3293 79.3737 71.585 79.1531L71.5854 79.1531Z" fill="white"/>
<path d="M71.3246 84.2512C68.7298 84.4813 66.5265 85.3723 64.71 86.8497C71.9583 84.0559 73.9615 84.6118 79.5053 86.1834C80.2344 86.3901 80.0078 85.6878 79.7218 85.5731C76.4024 84.2422 73.9197 84.0211 71.3247 84.2511L71.3246 84.2512Z" fill="white"/>
<path d="M85.686 88.7405C81.8187 88.3224 77.4619 88.7914 73.638 89.4886C69.8143 90.1859 66.5257 91.6025 64.6694 93.1124C71.027 90.4274 72.1856 90.4331 73.7566 90.1383C77.5237 89.4513 81.2578 89.1835 85.6472 89.3902C86.0453 89.409 86.0249 88.7771 85.6866 88.7405H85.686Z" fill="white"/>
<path d="M87.9307 91.8706C83.7397 91.7123 79.411 92.7494 75.6661 93.8196C71.9216 94.8898 69.1422 96.3501 67.3093 97.8408C71.0179 96.0569 74.469 94.8494 75.8432 94.4495C79.5354 93.3942 83.2602 92.4807 87.9702 92.5399C88.3361 92.5446 88.5726 91.8948 87.9308 91.8706L87.9307 91.8706Z" fill="white"/>
<path d="M91.3532 94.4472C87.406 95.0299 83.2675 96.1957 79.6594 97.4197C76.0516 98.6438 73.4836 100.098 71.8083 101.838C76.0996 99.3746 78.4597 98.5109 79.8561 98.0301C83.4196 96.821 86.747 95.9797 91.4709 95.0968C92.0379 94.9908 91.5826 94.4132 91.3528 94.4472H91.3532Z" fill="white"/>
<path d="M93.3607 97.7352C85.445 98.9961 80.3153 102.411 77.0549 105.798C82.1078 101.991 85.6228 99.9451 93.4983 98.3846C93.9967 98.2858 93.8462 97.6575 93.3605 97.7349L93.3607 97.7352Z" fill="white"/>
<path d="M97.2179 100.628C89.2563 101.854 84.6649 106.694 82.7529 109.889C87.7902 104.857 91.7105 102.118 97.3554 101.278C97.9267 101.193 97.7809 100.541 97.2176 100.628L97.2179 100.628Z" fill="white"/>
<path d="M99.6206 103.149C98.3789 103.304 96.6892 104.184 95.0928 105.197C93.4963 106.21 92.2918 107.442 91.5735 109.03C93.4965 107.045 94.2663 106.508 95.4471 105.748C96.9798 104.775 98.5244 104.163 99.7781 103.799C100.366 103.628 99.9216 103.112 99.6206 103.149H99.6206Z" fill="white"/>
<path d="M160.686 58.8242C160.686 60.3691 159.434 61.6215 157.889 61.6215C156.344 61.6215 155.092 60.3691 155.092 58.8242C155.092 57.2794 156.344 56.0269 157.889 56.0269C159.434 56.0269 160.686 57.2793 160.686 58.8242Z" fill="white" stroke="white" stroke-width="0.660673"/>
<path d="M160.686 58.8242C160.686 60.3691 159.434 61.6215 157.889 61.6215C156.344 61.6215 155.092 60.3691 155.092 58.8242C155.092 57.2794 156.344 56.0269 157.889 56.0269C159.434 56.0269 160.686 57.2793 160.686 58.8242Z" fill="#37C871" stroke="white" stroke-width="0.660673"/>
</svg>

<svg xmlns="http://www.w3.org/2000/svg" width="256" height="256" fill="none" viewBox="0 0 256 256"><rect width="256" height="256" fill="#F4F2ED" rx="60"/><path fill="#000" d="M67.9 193.68h-2.15c-.86 8.85-2.06 19.61-17.18 19.61h-6.96c-4.03 0-4.2-.6-4.2-3.47v-46.08c0-2.95 0-4.17 8.07-4.17h2.83v-2.6c-3.09.26-10.82.26-14.34.26-3.35 0-10.05 0-12.97-.26v2.6h1.98c6.6 0 6.78.96 6.78 4.08v45.57c0 3.12-.17 4.07-6.78 4.07H21v2.7h44.58z"/><path fill="#000" d="M66.43 156.88c-.34-1.04-.51-1.39-1.63-1.39s-1.37.35-1.71 1.4l-13.83 35.4c-.6 1.48-1.63 4.17-6.96 4.17v2.17h13.31v-2.17c-2.66 0-4.3-1.22-4.3-2.95 0-.44.1-.61.27-1.22l2.92-7.46h17l3.44 8.85c.17.35.34.78.34 1.04 0 1.74-3.26 1.74-4.9 1.74v2.17h16.93v-2.17h-1.2c-4.04 0-4.47-.61-5.07-2.35zM63 163.04l7.64 19.62H55.36z"/><path fill="#000" d="M135.23 157.49h-52.3l-1.55 19.44h2.06c1.2-13.97 2.5-16.84 15.46-16.84 1.55 0 3.78 0 4.64.18 1.8.34 1.8 1.3 1.8 3.3v45.56c0 2.95 0 4.16-9.02 4.16H92.9v2.7c3.52-.27 12.2-.27 16.14-.27 3.96 0 12.8 0 16.32.27v-2.7h-3.43c-9.02 0-9.02-1.21-9.02-4.16v-45.57c0-1.73 0-2.95 1.55-3.3.94-.17 3.26-.17 4.9-.17 12.88 0 14.16 2.87 15.37 16.84h2.14z"/><path fill="#000" d="M181.27 213.2h-2.15c-2.15 13.29-4.12 19.62-18.81 19.62h-11.34c-4.03 0-4.2-.6-4.2-3.47v-23.09h7.64c8.33 0 9.27 2.78 9.27 10.16h2.15V193.5h-2.15c0 7.37-.94 10.06-9.27 10.06h-7.65v-20.74c0-2.86.18-3.47 4.21-3.47h11c13.14 0 15.37 4.77 16.75 16.84h2.14l-2.4-19.44h-48.1v2.6h1.97c6.62 0 6.79.95 6.79 4.08v45.3c0 3.13-.17 4.08-6.78 4.08h-1.98v2.7h49.3z"/><path fill="#000" d="m207.12 182.57 11.77-17.36c1.8-2.77 4.72-5.55 12.36-5.64v-2.6h-20.44v2.6c3.44.09 5.33 2 5.33 4 0 .86-.17 1.04-.77 1.99l-9.8 14.58-10.99-16.66c-.17-.26-.6-.96-.6-1.3 0-1.05 1.89-2.52 5.5-2.6v-2.61c-2.92.26-9.2.26-12.46.26-2.66 0-7.99-.09-11.16-.26v2.6h1.63c4.72 0 6.35.6 7.99 3.04l15.71 24.04-14 20.92c-1.2 1.73-3.78 5.72-12.37 5.72v2.7h20.45v-2.7c-3.95-.08-5.41-2.43-5.41-3.99 0-.78.25-1.13.85-2.08l12.11-18.14 13.58 20.66c.17.34.42.69.42.95 0 1.04-1.88 2.52-5.58 2.6v2.7c3-.27 9.28-.27 12.46-.27 3.6 0 7.55.1 11.16.27v-2.7h-1.63c-4.47 0-6.27-.43-8.07-3.12z"/><path fill="teal" d="M66.77 20a48 48 0 0 0 4.72 7.05q-1.12-.16-2.32-.16-2.37 0-5.11.85c3.2 2.68 5.9 4.64 8.29 6.15a16 16 0 0 0-12.32.86 78 78 0 0 0 8.77 4.83c-3.9-.72-7.95-.4-12.36 2.52a83 83 0 0 0 7.67 3.01c-3.67.13-7.3 1.26-10.86 4.64a83 83 0 0 0 8.05 1.6 16 16 0 0 0-8.34 4.67q3.13.68 5.7 1.06a16.4 16.4 0 0 0-5.97 5.06q3.6.27 6.47.28a16 16 0 0 0-6.44 5.5c3.45.17 6.33.15 8.82 0a16 16 0 0 0-7.4 6.28c4.28.06 7.68-.15 10.53-.5a15.8 15.8 0 0 0-9.5 6.97c3.46.05 6.35-.08 8.84-.31a15.8 15.8 0 0 0-7.37 8.45c3.13-.6 5.75-1.23 8-1.9A16 16 0 0 0 59 94.65q3.13-.7 5.64-1.44a16 16 0 0 0-3.33 7.1 88 88 0 0 0 6-2.45 16 16 0 0 0-3.56 7.7c3.2-1.28 5.81-2.5 8-3.67a16 16 0 0 0-4.1 8.79c3.9-1.73 6.9-3.33 9.33-4.83a15.8 15.8 0 0 0-5.69 10.28c5.1-2.26 8.67-4.3 11.43-6.19a16 16 0 0 0-1.51 8.74 68 68 0 0 0 10.37-9.54c-.15 1.74-.03 3.63.49 5.73 3.54-6.08 7.05-7.86 10.7-9.89-5.8 2.92-4.94 5.12-4.94 7.67 4.42-4.66 10.59-9.6 12.47-12.7a29 29 0 0 0-4.21 10.55c-12.9 6.82-20.76 8.6-29.57 11.34 3.42 1.25 7.08 2.48 5.56 4.22l-4.03 4.02c2.58-.8 5.2-1.94 7.5-.38-.23 2.12-2.9 3.19-5.19 4.42 4.02-1.45 4.89-1.11 5.95-.77.53 2.53-1.3 3.9-2.5 5.57 10.13-7.7 23.34-13.78 32.65-16.32 13.09-4.4 29.96-9 34.55-20.17l4.6-18.43c5.39-5.82 10.34-11.86 12.69-19.2 14.98-2.9 27.1-1.85 39.74-1.53l-38.6-6.53c-10.94-14.98-27.25-4.8-32.62 10-1.36 3.72-9.1 3.72-11.34-.02-8.87-19.09-35.8-39.27-58.7-46.71"/><path fill="#fff" d="m155.18 59.07-.1.16a3.2 3.2 0 0 1-1.97 1.51q-1.4.44-3.48.34l-.87-.04.63.6c.32.32.4.56.41.78q0 .31-.3.7c-.4.53-1.23 1.1-2 1.68l-.26.18.18.25c.64.99.94 1.74 1 2.32.07.59-.06 1-.33 1.36-.54.72-1.72 1.21-2.78 1.81l-.2.1.05.24c.09.55-.06 1-.46 1.45q-.6.7-1.94 1.26l-.24.1.04.26c.18 1.18.53 2.22 1.28 2.87q1.03.9 3.03.5c.23 1.26.56 2.4 1.32 3.17.77.76 1.99.99 3.62.57q.57 1.31 1.52 1.93c.67.45 1.55.63 2.27.86l.43-.46a10 10 0 0 1-2.35-.96 3.4 3.4 0 0 1-1.36-1.83l-.1-.31-.31.1c-1.68.51-2.6.28-3.25-.36s-1-1.79-1.22-3.13l-.06-.35-.35.1c-1.38.36-2.2.17-2.76-.32-.52-.46-.83-1.27-1-2.28.8-.37 1.48-.78 1.93-1.28q.63-.77.59-1.73c.97-.54 2.15-1 2.83-1.91.36-.48.54-1.1.45-1.83a6 6 0 0 0-.96-2.35c.69-.5 1.44-1.01 1.91-1.61.26-.33.46-.7.45-1.12 0-.24-.22-.45-.35-.67 1.2.01 2.29-.07 3.19-.36q1.44-.46 2.18-1.63c1.42 0 2.89.32 4.37.51 1.53.2 3.08.25 4.55-.4l-.28-.6c-1.3.57-2.69.54-4.17.35s-3.03-.54-4.59-.53z"/><path fill="#fff" stroke="#fff" stroke-width=".66" d="M160.69 58.82a2.8 2.8 0 1 1-5.6 0 2.8 2.8 0 0 1 5.6 0Z"/><path fill="#fff" d="M169.04 56.2c-2.51 3.27-3.14 2.42-4.67 2.97l-.26.1.04.27c.6 3.29 2.54 4.33 4.05 5.52l.09-.26.4-.08c-1.52-1.2-3.18-2.2-3.79-5 1.11-.26 2.18.08 4.55-3.01zm-96.7-22.32c4.75 2.94 12.56 5.98 17.58 9.15a92 92 0 0 1 7.16 5.02c1.93 1.5 3.36 3.07 3.88 3.58.52.5.88.27.53-.4-.35-.66-2.07-2.19-4.01-3.72a92 92 0 0 0-7.21-5.04 82 82 0 0 0-17.93-8.6m-.85-6.82c1.99.46 4.93 2.16 8.2 3.97a152 152 0 0 1 17.84 11.83c1.9 1.63 2.85 2.68 3.22 2.68h.17a.4.4 0 0 0 .28-.2.4.4 0 0 0 .02-.3q-.02-.08-.06-.13a3 3 0 0 0-.51-.53 38 38 0 0 0-2.29-1.85 168 168 0 0 0-8.23-5.83A153 153 0 0 0 80 30.43c-1.17-.43-6.9-3.46-8.51-3.38m-2.72 12.53c6.1 2.48 14.76 5.4 20.54 9.04a92 92 0 0 1 7.84 5.55c1 .8 1.85 1.53 2.48 2.1s.97 1.1 1.18 1.25c.42.3.75.1.55-.38-.15-.35-.64-.77-1.28-1.35q-.97-.9-2.52-2.13a92 92 0 0 0-7.9-5.61c-6.25-3.98-13.74-7.47-20.89-8.47m-4.69 5.52c4.75 0 14.56 4.35 18.69 6.53 6.7 3.57 12.8 8.17 16.16 11.38.38.35.92.04.5-.46-3.13-3.62-9.6-7.9-16.35-11.5s-13.74-5.95-19-5.95m-2.74 6.26c7.14 1.04 15.7 3.92 21.92 7.04a74 74 0 0 1 8.96 5.34 29 29 0 0 1 4.57 4.05c.43.49.95.51.55-.35-.4-.87-2.33-2.56-4.74-4.26s-5.53-3.59-9.04-5.37c-7.01-3.56-15-6.36-22.22-6.46m2.36 5.32c-1.78-.16-3.37.2-5 .4 6.34-.59 15.21 2.33 21.12 5.05 6.96 3.26 12.74 7.74 15.51 10.6.44.44.74-.13.52-.42-2.58-3.3-8.72-7.5-15.75-10.8-5.28-2.46-11.08-4.37-16.4-4.83m-4.5 5.71c6.23.46 14.59 1.96 20.44 4.64a53 53 0 0 1 12.6 8.35c.34.31.95.1.47-.47-2.05-2.38-6.82-5.68-12.78-8.47a42.6 42.6 0 0 0-20.74-4.05m5.61 5.19c-1.32-.04-1.94.2-3.2.34 4.23.19 10.96 1.32 14.67 2.58a35 35 0 0 1 11.05 6.16c.43.38.76-.13.47-.45-2.11-2.37-6.4-4.64-11.3-6.34a41 41 0 0 0-11.7-2.29m-.18 6.15c9.06.6 14.53 2.2 18.73 5.96.31.28.8-.1.47-.47-4.3-4.67-12.78-5.97-19.2-5.5m6.98 5.44c-2.75-.22-5.05.38-7.55 1.21 7.32-1.16 10.37-.6 15.91 2 .63.3.6-.4.32-.57a19.5 19.5 0 0 0-8.69-2.64m-.26 5.1a12 12 0 0 0-6.61 2.6c7.25-2.8 9.25-2.24 14.8-.67.72.21.5-.5.21-.6a17 17 0 0 0-8.4-1.33m14.37 4.49c-3.87-.42-8.23.05-12.05.75s-7.11 2.11-8.97 3.62c6.36-2.68 7.52-2.68 9.09-2.97 3.76-.69 7.5-.96 11.89-.75.4.02.37-.61.04-.65m2.24 3.13c-4.19-.16-8.52.88-12.26 1.95s-6.53 2.53-8.36 4.02c3.7-1.78 7.16-3 8.53-3.4 3.7-1.05 7.42-1.96 12.13-1.9.37 0 .6-.65-.04-.67m3.42 2.58a69 69 0 0 0-11.7 2.97c-3.6 1.22-6.17 2.68-7.84 4.42a44 44 0 0 1 8.05-3.81 80 80 0 0 1 11.61-2.93c.57-.1.11-.69-.12-.65m2.01 3.29c-7.92 1.26-13.04 4.67-16.3 8.06 5.05-3.8 8.56-5.85 16.44-7.42.5-.1.35-.72-.14-.65m3.86 2.9c-7.96 1.22-12.56 6.06-14.47 9.26 5.04-5.03 8.96-7.77 14.6-8.61.58-.09.43-.74-.13-.65m2.4 2.52c-1.24.15-2.93 1.03-4.53 2.05a9 9 0 0 0-3.52 3.83 18 18 0 0 1 3.88-3.28 17 17 0 0 1 4.33-1.95c.59-.17.14-.69-.16-.65"/><path fill="#fff" stroke="#fff" stroke-width=".66" d="M160.69 58.82a2.8 2.8 0 1 1-5.6 0 2.8 2.8 0 0 1 5.6 0Z"/><path fill="#37C871" stroke="#fff" stroke-width=".66" d="M160.69 58.82a2.8 2.8 0 1 1-5.6 0 2.8 2.8 0 0 1 5.6 0Z"/></svg>
